icons/phone.svg

<svg width="48" height="48" viewBox="0 0 48 48" fill="none" xmlns="http://www.w3.org/2000/svg">
<path fill-rule="evenodd" clip-rule="evenodd" d="M8.88889 8C8.40228 8 8 8.40228 8 8.88889C8 26.0733 21.9267 40 39.1111 40C39.5977 40 40 39.5977 40 39.1111V32.5189C40 32.0323 39.5977 31.63 39.1111 31.63C36.6621 31.63 34.2706 31.2351 32.0541 30.5029L32.0434 30.4993C31.7447 30.3969 31.3891 30.4729 31.1482 30.7138L26.4777 35.3843L25.8296 35.0522C20.299 32.2185 15.7633 27.7036 12.9465 22.1679L12.6172 21.5208L17.2862 16.8518C17.5387 16.5993 17.6117 16.2576 17.5133 15.9377C16.7829 13.724 16.3889 11.3542 16.3889 8.88889C16.3889 8.40228 15.9866 8 15.5 8H8.88889ZM6 8.88889C6 7.29772 7.29772 6 8.88889 6H15.5C17.0912 6 18.3889 7.29772 18.3889 8.88889C18.3889 11.1427 18.7494 13.3035 19.4151 15.3185L19.4174 15.3255L19.4195 15.3324C19.7341 16.3331 19.5043 17.4621 18.7004 18.266L15.0655 21.9009C17.5916 26.5531 21.4428 30.3907 26.1005 32.9331L29.734 29.2996C30.5118 28.5218 31.6647 28.2574 32.6869 28.6056C34.6999 29.27 36.8777 29.63 39.1111 29.63C40.7023 29.63 42 30.9277 42 32.5189V39.1111C42 40.7023 40.7023 42 39.1111 42C20.8222 42 6 27.1778 6 8.88889Z" fill="black"/>
</svg>

<svg
  xmlns="http://www.w3.org/2000/svg"
  width="24"
  height="24"
  viewBox="0 0 24 24"
  fill="none"
  stroke="currentColor"
  stroke-width="2"
  stroke-linecap="round"
  stroke-linejoin="round"
>
  <path
    fill-rule="evenodd"
    d="M8.889 8A.894.894 0 0 0 8 8.889C8 26.073 21.927 40 39.111 40a.894.894 0 0 0 .889-.889V32.52a.894.894 0 0 0-.889-.889c-2.449 0-4.84-.395-7.057-1.127l-.01-.004a.88.88 0 0 0-.896.215l-4.67 4.67-.648-.332c-5.531-2.834-10.067-7.348-12.883-12.884l-.33-.647 4.67-4.67a.9.9 0 0 0 .226-.913 22.5 22.5 0 0 1-1.124-7.05A.894.894 0 0 0 15.5 8zM6 8.889A2.894 2.894 0 0 1 8.889 6H15.5a2.894 2.894 0 0 1 2.889 2.889c0 2.254.36 4.415 1.026 6.43l.002.006.002.007c.315 1.001.085 2.13-.719 2.934l-3.634 3.635A27.62 27.62 0 0 0 26.1 32.933l3.633-3.633a2.88 2.88 0 0 1 2.953-.694 20.6 20.6 0 0 0 6.424 1.024A2.894 2.894 0 0 1 42 32.519v6.592A2.894 2.894 0 0 1 39.111 42C20.822 42 6 27.178 6 8.889"
    clip-rule="evenodd"
  />
</svg>
